X:6169
T:Sonny Brogan's #2
T:Bryan O'Lynn
O:england
R:jig
D:Oisin: Over the Moor to Maggie
M:6/8
L:1/8
K:Ador
cBA cBA|GEG GAB|cAG A2G|Ad^c ded|
cBA cBA|~G3 GAB|cde ged|1 cAG A2B:|2 cAG A2d||
|:egg eaa|ged cAA|egg eaa|bag a2g|
egg eaa|ged cAA|cde ged|1 cAG A2d:|2 cAG A2B|
